X:87
T:??
S:irtrad-l, Ethan Hack, 10/94
D:Bothy Band: "Old Hag You Have Killed Me"
N:2nd tune in the "Music in the Glen" Set
M:C|
K:Am
d3e f2ed|cAGA cAGA|d3e f2ed|cAGE EDD2|dcde f2ed|cAGA cAGA|d3e f2ed|
cAGE EDD2||c2gc acgc|c2gc eaag|c2gc acgc|edcd edd2|c2gc acgc|c2gc eaag|abag
efed|cAGE EDD2||


